public/library/reental-text-light.svg

<svg width="112" height="26" viewBox="0 0 112 26" fill="none" xmlns="http://www.w3.org/2000/svg">
<g style="mix-blend-mode:luminosity" clip-path="url(#clip0_2523_6591)">
<path d="M107.673 24.5611V1.32539C107.673 1.0839 107.844 0.876078 108.08 0.829138L111.715 0.108887V0.909899V24.5611H107.673Z" fill="#FCA311"/>
<path d="M97.6133 6.28223C100.121 6.28226 102.077 7.00901 103.483 8.46191C104.889 9.8914 105.593 11.9184 105.593 14.543V24.5605H102.375C102.172 24.5605 102.007 24.3964 102.007 24.1934V22.2959C101.983 22.3241 101.961 22.3538 101.937 22.3818C101.21 23.2019 100.332 23.8585 99.3008 24.3506C98.2931 24.8427 97.1678 25.0879 95.9258 25.0879C94.7075 25.0879 93.6179 24.8542 92.6572 24.3857C91.7199 23.9171 90.9814 23.2605 90.4424 22.417C89.9034 21.5734 89.6338 20.6122 89.6338 19.5342C89.6338 17.8704 90.2082 16.5467 91.3564 15.5625C92.5047 14.5548 94.1566 13.9687 96.3125 13.8047L101.641 13.3691C101.567 12.4076 101.197 11.6033 100.53 10.957C99.7805 10.2074 98.7964 9.83206 97.5781 9.83203C96.547 9.83203 95.6913 10.0899 95.0117 10.6055C94.4595 11.0197 94.0738 11.5951 93.8535 12.2139C93.7852 12.4056 93.586 12.5264 93.3887 12.4766L93.3594 12.4688L90.2793 11.7148C90.0794 11.6659 89.9575 11.4617 90.0195 11.2656C90.4736 9.83692 91.3181 8.66779 92.5518 7.75879C93.9109 6.77465 95.598 6.28223 97.6133 6.28223ZM96.9102 17.1094C95.7853 17.2031 94.9765 17.4366 94.4844 17.8115C93.9923 18.1864 93.7461 18.6906 93.7461 19.3232C93.7461 19.9559 94.0275 20.4717 94.5898 20.8701C95.1523 21.2685 95.8673 21.4678 96.7344 21.4678C97.6483 21.4678 98.4689 21.245 99.1953 20.7998C99.9451 20.3311 100.542 19.7332 100.987 19.0068C101.422 18.2973 101.643 17.5322 101.653 16.7109L96.9102 17.1094Z" fill="#FCA311"/>
<path d="M84.0156 6.82666H88.1953V10.4468H84.0156V18.1099C84.0156 19.0471 84.2502 19.7506 84.7188 20.2192C85.2109 20.6879 85.9142 20.9224 86.8281 20.9224H87.5635C87.8427 20.9225 88.0693 21.1489 88.0693 21.4282V24.5786H85.668C83.934 24.5786 82.5516 24.0392 81.5205 22.9614C80.4894 21.86 79.9736 20.3831 79.9736 18.5317V10.4468H77.5508V7.07959C77.5508 6.93989 77.664 6.82666 77.8037 6.82666H79.9736V2.04834C79.9737 1.90868 80.0869 1.79541 80.2266 1.79541H84.0156V6.82666Z" fill="#FCA311"/>
<path d="M63.8896 9.33057C64.074 9.07972 64.2722 8.84195 64.4873 8.61963C65.1903 7.86975 66.0109 7.29536 66.9482 6.89697C67.8856 6.47515 68.9054 6.26416 70.0068 6.26416C71.2721 6.26421 72.4084 6.54557 73.416 7.10791C74.4471 7.6469 75.2559 8.45571 75.8418 9.53369C76.4509 10.5882 76.7559 11.912 76.7559 13.5054V24.5435H73.0811C72.878 24.5434 72.7131 24.3783 72.7129 24.1753V14.7358C72.7129 13.611 72.5605 12.6967 72.2559 11.9937C71.9512 11.2908 71.5066 10.7748 70.9209 10.4468C70.3585 10.1187 69.702 9.95462 68.9521 9.95459C68.2491 9.95459 67.5223 10.1304 66.7725 10.4819C66.046 10.8334 65.4247 11.4195 64.9092 12.2397C64.3936 13.0599 64.1357 14.1735 64.1357 15.5796V24.5435H60.5996C60.3202 24.5434 60.0938 24.316 60.0938 24.0366V6.77002C60.0938 6.49065 60.3202 6.26418 60.5996 6.26416H63.8896V9.33057Z" fill="#FCA311"/>
<path d="M29.7007 6.28223C31.4581 6.28229 32.9812 6.69256 34.27 7.5127C35.5823 8.30944 36.6022 9.43388 37.3286 10.8867C38.0785 12.3397 38.4526 14.0393 38.4526 15.9844V16.6729C38.4526 16.9523 38.2262 17.1787 37.9468 17.1787H24.8413C24.9349 17.8164 25.1353 18.4143 25.4468 18.9717C25.9155 19.745 26.5367 20.3663 27.3101 20.835C28.0834 21.3036 28.9391 21.5381 29.8765 21.5381C30.7667 21.538 31.575 21.3035 32.3013 20.835C33.0511 20.3429 33.5787 19.8582 34.0005 19.0381C34.0935 18.8289 34.3396 18.735 34.5483 18.8291L37.2847 20.0625C37.5409 20.178 37.6548 20.4813 37.5229 20.7295C36.8294 22.0342 35.8626 23.066 34.6216 23.8232C33.2625 24.6668 31.6807 25.0878 29.8765 25.0879C28.072 25.0879 26.4778 24.6903 25.0952 23.8936C23.7361 23.0968 22.6703 21.9949 21.897 20.5889C21.1237 19.1829 20.7369 17.5426 20.7368 15.668C20.7368 13.8167 21.1119 12.1873 21.8618 10.7812C22.6351 9.35204 23.6894 8.25079 25.0249 7.47754C26.3841 6.68077 27.9431 6.28223 29.7007 6.28223ZM49.2192 6.28223C50.9768 6.28223 52.5007 6.69249 53.7896 7.5127C55.1016 8.30938 56.1208 9.43408 56.8472 10.8867C57.5971 12.3397 57.9722 14.0393 57.9722 15.9844V16.6729C57.9722 16.9523 57.7457 17.1787 57.4663 17.1787H44.3608C44.4544 17.8164 44.6548 18.4143 44.9663 18.9717C45.435 19.745 46.0563 20.3663 46.8296 20.835C47.6028 21.3035 48.4579 21.538 49.395 21.5381C50.2855 21.5381 51.0943 21.3036 51.8208 20.835C52.5707 20.3429 53.0982 19.8582 53.52 19.0381L53.5386 18.9971C53.6214 18.8107 53.8399 18.7269 54.0259 18.8105L56.9312 20.1201C57.1174 20.2043 57.2 20.4245 57.1069 20.6064C56.4094 21.9697 55.421 23.0423 54.1411 23.8232C52.7819 24.6669 51.1995 25.0879 49.395 25.0879C47.5908 25.0878 45.9972 24.6902 44.6147 23.8936C43.2556 23.0968 42.1889 21.9949 41.4155 20.5889C40.6423 19.1829 40.2564 17.5425 40.2563 15.668C40.2563 13.8167 40.6305 12.1873 41.3804 10.7812C42.1537 9.35183 43.2088 8.25086 44.5444 7.47754C45.9035 6.68083 47.4618 6.28229 49.2192 6.28223ZM29.771 9.83203C28.8337 9.83203 27.9779 10.0548 27.2046 10.5C26.4313 10.9218 25.8334 11.5197 25.4116 12.293C25.1551 12.7491 24.978 13.2532 24.8774 13.8047H34.4067C34.3039 13.1589 34.0959 12.5843 33.7778 12.082C33.356 11.3556 32.7933 10.8046 32.0903 10.4297C31.4109 10.0315 30.6377 9.8321 29.771 9.83203ZM49.2896 9.83203C48.3525 9.83209 47.4973 10.0549 46.7241 10.5C45.9508 10.9218 45.353 11.5197 44.9312 12.293C44.6746 12.7491 44.4975 13.2532 44.397 13.8047H53.9263C53.8235 13.1589 53.6155 12.5843 53.2974 12.082C52.8755 11.3556 52.3129 10.8046 51.6099 10.4297C50.9303 10.0314 50.1565 9.83203 49.2896 9.83203Z" fill="#FCA311"/>
<path fill-rule="evenodd" clip-rule="evenodd" d="M0 0.398043C0 0.191963 0.16706 0.0249023 0.37314 0.0249023H10.3875C10.9636 0.0249023 11.6927 0.0510005 12.4438 0.242229C14.1307 0.671666 16.4028 1.77296 17.7462 3.74538C19.5745 6.70755 19.6962 10.3364 17.3447 13.6251C17.2166 13.8043 16.9605 13.8246 16.7998 13.674L14.6418 11.6506C14.5143 11.531 14.4878 11.3388 14.5723 11.1857C15.9155 8.74853 15.2776 7.32021 14.6998 6.15693C14.0981 4.94562 12.7982 4.1058 11.701 3.74538C10.5442 3.22624 8.41465 3.31276 7.94135 3.31276H4.31389C4.10781 3.31276 3.94075 3.47982 3.94075 3.6859V18.4104C3.94075 18.5349 3.87861 18.6512 3.7751 18.7205L0.580635 20.8578C0.332704 21.0237 0 20.846 0 20.5477V0.398043Z" fill="#FCA311"/>
<path fill-rule="evenodd" clip-rule="evenodd" d="M10.8171 14.4698C10.9055 14.4081 11.0251 14.4172 11.1032 14.4916L21.2414 24.1535C21.3895 24.2947 21.2896 24.5443 21.085 24.5443H16.4278C16.1915 24.5443 15.9646 24.4521 15.7953 24.2872L10.6106 19.2389L8.96164 17.59L8.07757 16.7059C7.97781 16.6062 7.99245 16.4405 8.10816 16.3598L10.8171 14.4698Z" fill="#FCA311"/>
</g>
<defs>
<clipPath id="clip0_2523_6591">
<rect width="111.72" height="25" fill="white" transform="translate(0 0.108887)"/>
</clipPath>
</defs>
</svg>

<svg xmlns="http://www.w3.org/2000/svg" width="112" height="26" fill="none" viewBox="0 0 112 26"><g fill="#fca311" clip-path="url(#a)" style="mix-blend-mode:luminosity"><path d="M107.673 24.561V1.325c0-.241.171-.449.407-.496l3.635-.72V24.56zM97.613 6.282q3.761 0 5.87 2.18 2.11 2.144 2.11 6.081v10.018h-3.218a.37.37 0 0 1-.368-.368v-1.897l-.07.086a8.2 8.2 0 0 1-2.636 1.969q-1.512.738-3.375.737-1.828 0-3.269-.702-1.406-.703-2.215-1.969t-.808-2.883q0-2.496 1.722-3.971 1.722-1.512 4.957-1.758l5.328-.436q-.11-1.442-1.111-2.412-1.125-1.125-2.952-1.125-1.547 0-2.566.773a3.44 3.44 0 0 0-1.159 1.609.4.4 0 0 1-.464.263l-.03-.008-3.08-.754a.355.355 0 0 1-.26-.45q.683-2.142 2.533-3.506 2.038-1.477 5.061-1.477M96.91 17.11q-1.687.141-2.426.702-.738.563-.738 1.512t.844 1.547 2.144.598q1.371 0 2.461-.668a5.46 5.46 0 0 0 1.792-1.793q.652-1.065.666-2.296zM84.016 6.827h4.18v3.62h-4.18v7.663q0 1.405.703 2.11.738.702 2.11.702h.735c.279 0 .505.227.505.506v3.15h-2.401q-2.6 0-4.148-1.617-1.546-1.652-1.546-4.43v-8.084H77.55V7.08c0-.14.113-.253.253-.253h2.17V2.048c0-.14.113-.253.253-.253h3.789zM63.89 9.33q.275-.376.597-.71a7.2 7.2 0 0 1 2.461-1.723q1.406-.633 3.059-.633 1.897 0 3.409.844 1.547.809 2.426 2.426.914 1.581.914 3.971v11.039H73.08a.37.37 0 0 1-.368-.369v-9.44q0-1.686-.457-2.741-.458-1.055-1.335-1.547-.844-.492-1.969-.492-1.055 0-2.18.527-1.089.527-1.863 1.758-.773 1.23-.773 3.34v8.964H60.6a.507.507 0 0 1-.506-.507V6.77c0-.28.226-.506.506-.506h3.29zM29.7 6.282q2.637 0 4.57 1.23 1.968 1.196 3.059 3.375 1.125 2.18 1.124 5.097v.689c0 .28-.227.506-.506.506H24.84q.14.956.606 1.793a5.45 5.45 0 0 0 1.863 1.863 4.86 4.86 0 0 0 2.567.703 4.4 4.4 0 0 0 2.424-.703c.75-.492 1.278-.977 1.7-1.797a.414.414 0 0 1 .547-.209l2.737 1.233c.256.116.37.42.238.668a7.9 7.9 0 0 1-2.901 3.093q-2.04 1.265-4.745 1.265-2.708 0-4.782-1.194a8.5 8.5 0 0 1-3.198-3.305q-1.16-2.109-1.16-4.921 0-2.777 1.125-4.887 1.16-2.144 3.163-3.303 2.04-1.196 4.676-1.196m19.52 0q2.635 0 4.57 1.23 1.967 1.196 3.057 3.375 1.125 2.18 1.125 5.097v.689c0 .28-.226.506-.506.506H44.361q.139.956.605 1.793a5.45 5.45 0 0 0 1.864 1.863 4.86 4.86 0 0 0 2.565.703q1.336 0 2.426-.703c.75-.492 1.277-.977 1.699-1.797l.019-.04a.37.37 0 0 1 .487-.187l2.905 1.31a.357.357 0 0 1 .176.485 7.9 7.9 0 0 1-2.966 3.217q-2.04 1.265-4.746 1.265t-4.78-1.194a8.5 8.5 0 0 1-3.2-3.305q-1.16-2.109-1.159-4.921 0-2.777 1.124-4.887 1.161-2.144 3.164-3.303 2.04-1.196 4.675-1.196M29.77 9.832q-1.406 0-2.566.668a4.4 4.4 0 0 0-1.793 1.793q-.385.684-.535 1.512h9.53a4.5 4.5 0 0 0-.63-1.723 4.23 4.23 0 0 0-1.687-1.652q-1.02-.598-2.319-.598m19.519 0q-1.406 0-2.566.668a4.4 4.4 0 0 0-1.793 1.793 4.8 4.8 0 0 0-.534 1.512h9.53a4.5 4.5 0 0 0-.63-1.723 4.24 4.24 0 0 0-1.687-1.652q-1.02-.598-2.32-.598"/><path fill-rule="evenodd" d="M0 .398C0 .192.167.025.373.025h10.015c.576 0 1.305.026 2.056.217 1.687.43 3.959 1.531 5.302 3.503 1.829 2.963 1.95 6.591-.401 9.88a.363.363 0 0 1-.545.049l-2.158-2.023a.38.38 0 0 1-.07-.465c1.344-2.437.706-3.866.128-5.03-.602-1.21-1.902-2.05-2.999-2.41-1.157-.52-3.286-.433-3.76-.433H4.314a.373.373 0 0 0-.373.373V18.41c0 .125-.062.241-.166.31L.581 20.859a.373.373 0 0 1-.581-.31z" clip-rule="evenodd"/><path fill-rule="evenodd" d="M10.817 14.47a.23.23 0 0 1 .286.022l10.138 9.662a.227.227 0 0 1-.156.39h-4.657a.9.9 0 0 1-.633-.257l-5.184-5.048-1.65-1.649-.883-.884a.227.227 0 0 1 .03-.346z" clip-rule="evenodd"/></g><defs><clipPath id="a"><path fill="#fff" d="M0 .109h111.72v25H0z"/></clipPath></defs></svg>
